X: 1
T:Les heures de Lune (brouillon)
M:4/4
L:1/4
Q:1/4=126
K:Eb % 3 flats
V:1
%%MIDI program 74
%%staves (1 2)
| CC B,B, E/ D/  C2 C | CB, B,E/  D<C E/  F/ G/  G :|
C E/ D/  E E/ F/  G/ G/  A A F | B/ A/  G GE G/ A/ G/ F/  F/ D/  E |
%%staves [1 | 2]
|: CC B,B, E/ D/  C2 C | CB, B,E/  D<C E/  F/ G/  G :|
|: C E/ D/  E E/ F/  G/ G/  A A F | B/ A/  G GE G/ A/ G/ F/  F/ D/  E :|
|: CC B,B, E/ D/  C2 C | CB, B,E/  D<C E/  F/ G/  G :| 
V:2
%%MIDI program 72
| z8 | z8 :| z8 | z8 |
%%staves [1 | 2]
|: EE D G/ B/  G/ F/  E E/ B/  E | ED F/ G,/ E/ F/  G/ G/ G,/ G/  G,G,/ G,/  :|
%%MIDI program 73
|: G,G, EE D D/ F/  A G/ A/  | FD G/ F/ E/ D/  C2 E/ D/  C :|
|: EE D G/ B/  G/ F/  E E/ B/  E | ED F/ G,/ E/ F/  G/ G/ G,/ G/  G,G,/ G,/  :|


